src/icons/svg/chevron-right.svg

<svg width="20" height="20" fill="none" xmlns="http://www.w3.org/2000/svg"><path d="M7.461 5.334c-.23.122-.342.382-.285.666.028.142.14.26 2.127 2.25l2.096 2.101-2.066 2.066c-1.137 1.136-2.09 2.116-2.119 2.177a.712.712 0 0 0-.053.256c0 .391.338.654.739.574.142-.028.269-.148 2.491-2.368 1.29-1.287 2.366-2.388 2.395-2.449a.716.716 0 0 0 .015-.49c-.049-.13-4.607-4.699-4.775-4.786a.669.669 0 0 0-.565.003" fill="#19191C" fill-rule="evenodd"/></svg>

<svg width="20" height="20" viewBox="0 0 20 20" fill="none" xmlns="http://www.w3.org/2000/svg"><path d="M7.461 5.334 C 7.231 5.456,7.119 5.716,7.176 6.000 C 7.204 6.142,7.316 6.260,9.303 8.250 L 11.399 10.351 9.333 12.417 C 8.196 13.553,7.243 14.533,7.214 14.594 C 7.185 14.655,7.161 14.770,7.161 14.850 C 7.161 15.241,7.499 15.504,7.900 15.424 C 8.042 15.396,8.169 15.276,10.391 13.056 C 11.681 11.769,12.757 10.668,12.786 10.607 C 12.848 10.476,12.854 10.259,12.801 10.117 C 12.752 9.987,8.194 5.418,8.026 5.331 C 7.867 5.248,7.621 5.250,7.461 5.334 " fill="#19191C" stroke="none" fill-rule="evenodd"></path></svg>
